img/index/index_decorate_秤.svg

<svg width="101" height="63" viewBox="0 0 101 63" fill="none" xmlns="http://www.w3.org/2000/svg">
<g opacity="0.6">
<path d="M68.0679 32.5038L98.8631 17.1212V14.579C98.8631 14.579 98.663 14.1783 97.1933 13.9779L50.4333 2.54209C50.4333 2.54209 49.564 2.27491 48.8969 2.54209L16.5671 12.0388C16.5671 12.0388 15.3643 13.5771 15.3643 14.0447V15.4493L53.773 28.223L66.5982 32.5038C66.5982 32.5038 67.3183 32.8771 68.0679 32.5038V32.5038Z" stroke="#C2724A" stroke-miterlimit="10"/>
<path d="M15.3643 14.0447L67.0671 31.0324C67.0671 31.0324 68.4034 30.1621 68.8037 28.7593L97.9958 14.9818" stroke="#C2724A" stroke-miterlimit="10"/>
<path d="M68.8037 28.7574L16.5671 12.0388" stroke="#C2724A" stroke-miterlimit="10"/>
<path d="M67.0671 31.0325V32.6454" stroke="#C2724A" stroke-miterlimit="10"/>
<path d="M19.4732 16.8147V18.9934L66.398 35.1776L66.5982 32.5038" stroke="#C2724A" stroke-miterlimit="10"/>
<path d="M95.2546 18.9228L97.3934 19.5947C97.3934 19.5947 98.9299 19.8619 96.8597 21.0662L66.6001 35.9792L54.709 59.3872V60.5915L4.07556 37.8535V37.1855L15.3643 18.4592L18.0368 17.5456C18.0368 17.5456 18.5529 17.3865 19.4752 17.2549" stroke="#C2724A" stroke-miterlimit="10"/>
<path d="M19.4732 17.9229L17.5011 18.7932" stroke="#C2724A" stroke-miterlimit="10"/>
<path d="M15.3643 18.4592L66.5981 35.9813" stroke="#C2724A" stroke-miterlimit="10"/>
<path d="M97.9389 19.9954C97.9389 19.9954 98.3274 19.7282 98.4628 21.402L99.13 27.2211C99.13 27.2211 99.3419 28.7594 98.5354 29.4941L69.5395 46.6822L65.464 54.6407L54.709 60.5933" stroke="#C2724A" stroke-miterlimit="10"/>
<path d="M99.0613 26.6101C99.0613 26.6101 98.663 27.0855 97.9958 27.6199C97.3287 28.1543 68.5368 44.2736 68.5368 44.2736L63.0112 55.9982" stroke="#C2724A" stroke-miterlimit="10"/>
<path d="M71.3036 45.635V47.1497C71.3036 47.1497 70.9465 47.9571 68.735 48.2518" stroke="#C2724A" stroke-miterlimit="10"/>
<path d="M70.9072 47.5505V48.5544C70.9072 48.5544 70.4579 49.9788 67.8815 49.9198" stroke="#C2724A" stroke-miterlimit="10"/>
<path d="M72.4731 44.9417L73.9703 45.6352C73.9703 45.6352 74.8964 45.759 75.3478 45.2875L85.4179 39.2739L85.6318 37.1404" stroke="#C2724A" stroke-miterlimit="10"/>
<path d="M74.0998 43.9771V45.6351" stroke="#C2724A" stroke-miterlimit="10"/>
<path d="M77.9595 41.6902V43.7294" stroke="#C2724A" stroke-miterlimit="10"/>
<path d="M82.5177 38.9871V40.9045" stroke="#C2724A" stroke-miterlimit="10"/>
<path d="M89.4346 34.8889L89.3267 36.5411C89.3267 36.5411 88.5281 37.7454 85.6338 38.0204" stroke="#C2724A" stroke-miterlimit="10"/>
<path d="M88.8381 36.9988V38.0204C88.8381 38.0204 88.0944 39.1559 85.4474 38.9869" stroke="#C2724A" stroke-miterlimit="10"/>
<path d="M35.12 42.9003L13.3824 33.7651C13.1097 33.6551 12.9998 33.3289 13.1528 33.0775L17.4521 25.9971C17.5718 25.8007 17.8131 25.7162 18.029 25.7948L40.008 34.2248C40.2827 34.325 40.4043 34.6432 40.265 34.8986L35.7244 42.6842C35.6067 42.8984 35.3476 42.9907 35.12 42.8984V42.9003Z" stroke="#C2724A" stroke-miterlimit="10"/>
<path d="M16.911 37.8623C17.1965 37.6122 17.2729 37.2321 17.0816 37.0133C16.8904 36.7944 16.504 36.8197 16.2185 37.0697C15.933 37.3198 15.8566 37.6999 16.0478 37.9187C16.2391 38.1376 16.6255 38.1123 16.911 37.8623Z" stroke="#C2724A" stroke-miterlimit="10"/>
<path d="M16.5671 34.3507L16.7339 33.0718L17.8681 33.7122L16.5671 34.3507Z" fill="#C2724A"/>
<path d="M32.7438 35.3643L32.4553 35.5823L32.5005 35.2876L33.7425 33.4252L34.031 33.2071L33.9859 33.5018L32.7438 35.3643ZM31.0523 37.9005L30.7599 38.1245L30.809 37.8239L32.0472 35.9654L32.3356 35.7473L32.2905 36.042L31.0523 37.9005ZM34.9493 33.382L34.6569 33.5843L34.1075 33.4115L34.1311 33.1384L34.4234 32.936L34.9729 33.1089L34.9493 33.382ZM31.5586 38.4663L31.2662 38.6687L30.7168 38.4958L30.7403 38.2227L31.0327 38.0204L31.5821 38.1932L31.5586 38.4663ZM35.8461 33.6629L35.5537 33.8653L35.0043 33.6924L35.0278 33.4193L35.3202 33.217L35.8696 33.3899L35.8461 33.6629ZM32.4553 38.7472L32.1629 38.9496L31.6135 38.7767L31.6371 38.5036L31.9314 38.3013L32.4808 38.4742L32.4573 38.7472H32.4553ZM34.5333 35.9261L34.2449 36.1442L34.29 35.8495L35.5399 33.9753L35.8284 33.7572L35.7833 34.0519L34.5333 35.9261ZM32.8419 38.4624L32.5495 38.6863L32.5986 38.3858L33.8367 36.5273L34.1252 36.3092L34.08 36.6039L32.8419 38.4604V38.4624Z" fill="#C2724A"/>
<path d="M29.9123 34.1855L29.6238 34.4036L29.6689 34.1089L30.911 32.2465L31.1995 32.0284L31.1544 32.3231L29.9123 34.1855ZM28.2208 36.7218L27.9284 36.9458L27.9775 36.6452L29.2157 34.7867L29.5041 34.5686L29.459 34.8633L28.2208 36.7218ZM32.1178 32.2033L31.8254 32.4056L31.276 32.2328L31.2996 31.9597L31.5919 31.7573L32.1414 31.9302L32.1178 32.2033ZM28.7271 37.2876L28.4347 37.49L27.8853 37.3171L27.9088 37.044L28.2012 36.8416L28.7506 37.0145L28.7271 37.2876ZM33.0146 32.4842L32.7222 32.6866L32.1728 32.5137L32.1963 32.2406L32.4887 32.0383L33.0381 32.2111L33.0146 32.4842ZM29.6238 37.5685L29.3314 37.7709L28.782 37.598L28.8056 37.3249L29.0999 37.1226L29.6493 37.2955L29.6258 37.5685H29.6238ZM31.7018 34.7474L31.4134 34.9655L31.4585 34.6708L32.7084 32.7966L32.9969 32.5785L32.9518 32.8732L31.7018 34.7474ZM30.0104 37.2837L29.718 37.5076L29.7671 37.2071L31.0052 35.3486L31.2937 35.1305L31.2485 35.4252L30.0104 37.2817V37.2837Z" fill="#C2724A"/>
<path d="M26.9375 33.0068L26.6491 33.2249L26.6942 32.9302L27.9363 31.0678L28.2247 30.8497L28.1796 31.1444L26.9375 33.0068ZM25.2461 35.5431L24.9537 35.7671L25.0028 35.4665L26.2409 33.608L26.5294 33.3899L26.4842 33.6846L25.2461 35.5431ZM29.1431 31.0246L28.8507 31.2269L28.3013 31.054L28.3248 30.781L28.6172 30.5786L29.1666 30.7515L29.1431 31.0246ZM25.7523 36.1089L25.46 36.3112L24.9105 36.1384L24.9341 35.8653L25.2265 35.6629L25.7759 35.8358L25.7523 36.1089ZM30.0398 31.3055L29.7474 31.5079L29.198 31.335L29.2216 31.0619L29.5139 30.8595L30.0634 31.0324L30.0398 31.3055ZM26.6491 36.3898L26.3567 36.5922L25.8073 36.4193L25.8308 36.1462L26.1252 35.9439L26.6746 36.1168L26.651 36.3898H26.6491ZM28.7271 33.5687L28.4386 33.7868L28.4838 33.4921L29.7337 31.6179L30.0221 31.3998L29.977 31.6945L28.7271 33.5687ZM27.0356 36.105L26.7433 36.3289L26.7923 36.0283L28.0305 34.1699L28.3189 33.9518L28.2738 34.2465L27.0356 36.103V36.105Z" fill="#C2724A"/>
<path d="M23.9196 31.9519L23.6312 32.17L23.6763 31.8753L24.9184 30.0129L25.2068 29.7948L25.1617 30.0895L23.9196 31.9519ZM22.2282 34.4882L21.9358 34.7121L21.9848 34.4115L23.223 32.5531L23.5115 32.335L23.4663 32.6297L22.2282 34.4882ZM26.1252 29.9696L25.8328 30.172L25.2834 29.9991L25.3069 29.726L25.5993 29.5237L26.1487 29.6966L26.1252 29.9696ZM22.7344 35.054L22.442 35.2563L21.8926 35.0834L21.9162 34.8104L22.2085 34.608L22.758 34.7809L22.7344 35.054ZM27.0219 30.2506L26.7295 30.4529L26.1801 30.28L26.2036 30.007L26.496 29.8046L27.0454 29.9775L27.0219 30.2506ZM23.6312 35.3349L23.3388 35.5372L22.7894 35.3644L22.8129 35.0913L23.1072 34.8889L23.6567 35.0618L23.6331 35.3349H23.6312ZM25.7092 32.5138L25.4207 32.7318L25.4658 32.4371L26.7158 30.5629L27.0042 30.3449L26.9591 30.6396L25.7092 32.5138ZM24.0177 35.05L23.7253 35.274L23.7744 34.9734L25.0126 33.1149L25.301 32.8969L25.2559 33.1915L24.0177 35.0481V35.05Z" fill="#C2724A"/>
<path d="M24.5161 35.4607H24.108V35.8693H24.5161V35.4607Z" fill="#C2724A"/>
<path d="M35.7499 48.5919L6.70887 35.6375C6.49891 35.5432 6.41846 35.2858 6.5362 35.0893L15.2014 20.6694C15.2956 20.5122 15.4879 20.4434 15.6606 20.5063L45.2196 31.2486C45.4414 31.3291 45.5375 31.5885 45.4237 31.7947L36.2424 48.4288C36.1463 48.6037 35.9324 48.6744 35.7499 48.5938V48.5919Z" stroke="#C2724A" stroke-miterlimit="10"/>
<path d="M38.393 48.9748L47.6705 32.38C47.7823 32.1777 48.0256 32.0893 48.2415 32.1679L63.4154 37.7257C63.6862 37.8239 63.8039 38.1402 63.6666 38.3936L54.0458 56.065C53.928 56.2811 53.6651 56.3695 53.4414 56.2693L38.6108 49.6349C38.3577 49.5229 38.2576 49.2165 38.393 48.9748V48.9748Z" stroke="#C2724A" stroke-miterlimit="10"/>
<path d="M46.0712 36.3918L47.5449 33.7376C47.5939 33.6492 47.6999 33.6119 47.7941 33.6473L51.695 35.1344C51.8069 35.1777 51.8579 35.3073 51.8029 35.4154L50.4176 38.1402C50.3705 38.2326 50.2606 38.2738 50.1645 38.2365L46.1752 36.6786C46.0614 36.6334 46.0124 36.4998 46.0712 36.3918Z" stroke="#C2724A" stroke-miterlimit="10"/>
<path d="M51.0357 38.2956L52.5917 35.6414C52.6428 35.553 52.7546 35.5157 52.8547 35.5511L56.9773 37.0383C57.0951 37.0815 57.15 37.2111 57.0911 37.3192L55.6273 40.0441C55.5783 40.1364 55.4625 40.1776 55.3605 40.1403L51.1456 38.5824C51.0259 38.5372 50.9749 38.4036 51.0357 38.2956V38.2956Z" stroke="#C2724A" stroke-miterlimit="10"/>
<path d="M56.2493 40.268L57.8211 37.6139C57.8741 37.5255 57.9859 37.4881 58.086 37.5235L62.2498 39.0107C62.3695 39.0539 62.4225 39.1836 62.3656 39.2916L60.8881 42.0165C60.837 42.1088 60.7213 42.1501 60.6173 42.1127L56.3592 40.5548C56.2376 40.5096 56.1865 40.376 56.2493 40.268Z" stroke="#C2724A" stroke-miterlimit="10"/>
<path d="M43.9265 40.3876L45.4002 37.7335C45.4492 37.6451 45.5552 37.6078 45.6494 37.6431L49.2991 39.0949C49.411 39.1382 49.462 39.2678 49.407 39.3759L48.0217 42.1007C47.9746 42.1931 47.8647 42.2343 47.7686 42.197L44.0305 40.6745C43.9167 40.6293 43.8677 40.4957 43.9265 40.3876Z" stroke="#C2724A" stroke-miterlimit="10"/>
<path d="M48.6398 42.256L50.1959 39.6019C50.2469 39.5135 50.3587 39.4762 50.4588 39.5115L54.5815 40.9987C54.6992 41.0419 54.7541 41.1716 54.6953 41.2796L53.2314 44.0045C53.1824 44.0968 53.0666 44.1381 52.9646 44.1008L48.7497 42.5429C48.63 42.4977 48.579 42.3641 48.6398 42.256V42.256Z" stroke="#C2724A" stroke-miterlimit="10"/>
<path d="M53.8554 44.2284L55.4272 41.5743C55.4801 41.4859 55.592 41.4486 55.6921 41.4839L59.8559 42.9711C59.9756 43.0143 60.0286 43.144 59.9717 43.2521L58.4941 45.9769C58.4431 46.0693 58.3273 46.1105 58.2233 46.0732L53.9653 44.5153C53.8436 44.4701 53.7926 44.3365 53.8554 44.2284Z" stroke="#C2724A" stroke-miterlimit="10"/>
<path d="M41.6366 44.3227L43.1868 41.7137C43.2378 41.6273 43.3457 41.5919 43.4379 41.6312L47.2937 43.2323C47.4056 43.2775 47.4507 43.4111 47.3938 43.5152L45.93 46.1988C45.8809 46.2892 45.7691 46.3285 45.6749 46.2872L41.7328 44.6115C41.6209 44.5643 41.5758 44.4268 41.6386 44.3227H41.6366Z" stroke="#C2724A" stroke-miterlimit="10"/>
<path d="M46.5049 46.4818L47.8843 43.7157C47.9393 43.6292 48.0511 43.5939 48.1493 43.6332L52.5191 45.2893C52.6369 45.3364 52.6859 45.4681 52.6251 45.5722L51.0828 48.2538C51.0298 48.3442 50.914 48.3835 50.812 48.3422L46.605 46.7706C46.4853 46.7234 46.4382 46.5859 46.5049 46.4818Z" stroke="#C2724A" stroke-miterlimit="10"/>
<path d="M51.6989 48.4956L53.1058 45.8394C53.1608 45.753 53.2746 45.7176 53.3727 45.7569L57.7347 47.415C57.8525 47.4622 57.9035 47.5938 57.8427 47.6979L56.2847 50.3796C56.2317 50.47 56.1139 50.5092 56.0119 50.468L51.801 48.7843C51.6813 48.7372 51.6322 48.5997 51.6989 48.4956V48.4956Z" stroke="#C2724A" stroke-miterlimit="10"/>
<path d="M39.3172 48.3422L40.8674 45.7332C40.9184 45.6468 41.0263 45.6114 41.1186 45.6507L44.9744 47.2519C45.0862 47.2971 45.1313 47.4306 45.0744 47.5348L43.6106 50.2184C43.5615 50.3087 43.4497 50.348 43.3555 50.3068L39.4134 48.631C39.3015 48.5838 39.2564 48.4463 39.3192 48.3422H39.3172Z" stroke="#C2724A" stroke-miterlimit="10"/>
<path d="M44.2248 50.3913L45.8574 47.7843C45.9123 47.6978 46.0242 47.6625 46.1223 47.7018L50.1998 49.3088C50.3175 49.3559 50.3666 49.4876 50.3057 49.5917L48.7634 52.2733C48.7104 52.3637 48.5947 52.403 48.4926 52.3617L44.3249 50.6801C44.2052 50.6329 44.1581 50.4954 44.2248 50.3913V50.3913Z" stroke="#C2724A" stroke-miterlimit="10"/>
<path d="M49.3933 52.5996L50.8964 49.859C50.9513 49.7725 51.0651 49.7372 51.1632 49.7765L55.4154 51.4346C55.5331 51.4817 55.5841 51.6133 55.5233 51.7175L53.9653 54.5032C53.9123 54.5936 53.7946 54.6329 53.6926 54.5916L49.4953 52.8884C49.3756 52.8412 49.3266 52.7037 49.3933 52.5996V52.5996Z" stroke="#C2724A" stroke-miterlimit="10"/>
<path d="M36.5054 33.6355L36.0384 34.608" stroke="#C2724A" stroke-miterlimit="10"/>
<path d="M36.7389 34.1208L36.2719 34.3507L36.5054 34.7122" stroke="#C2724A" stroke-miterlimit="10"/>
<path d="M37.3746 34.8908C37.3746 34.8908 36.8743 34.8338 36.9076 34.5548C36.9076 34.5548 37.0744 34.1599 37.3746 34.3525C37.3746 34.3525 37.8416 34.4016 37.3746 34.8908Z" stroke="#C2724A" stroke-miterlimit="10"/>
<path d="M36.5054 35.2563C36.5054 35.2563 36.939 35.9714 37.3746 34.8889" stroke="#C2724A" stroke-miterlimit="10"/>
</g>
</svg>

<svg width="101" height="63" fill="none" xmlns="http://www.w3.org/2000/svg"><g opacity=".6"><path d="M68.068 32.504 98.863 17.12V14.58s-.2-.4-1.67-.601L50.433 2.542s-.869-.267-1.536 0l-32.33 9.497s-1.203 1.538-1.203 2.006v1.404l38.409 12.774 12.825 4.28s.72.374 1.47 0Z" stroke="#C2724A" stroke-miterlimit="10"/><path d="m15.364 14.045 51.703 16.987s1.336-.87 1.737-2.273l29.192-13.777M68.804 28.757 16.567 12.04M67.067 31.032v1.613M19.473 16.815v2.178l46.925 16.185.2-2.674" stroke="#C2724A" stroke-miterlimit="10"/><path d="m95.255 18.923 2.138.672s1.537.267-.533 1.471L66.6 35.98 54.71 59.387v1.205L4.076 37.853v-.668L15.364 18.46l2.673-.913s.516-.16 1.438-.291M19.473 17.923l-1.972.87M15.364 18.46 66.598 35.98" stroke="#C2724A" stroke-miterlimit="10"/><path d="M97.939 19.995s.388-.267.524 1.407l.667 5.82s.212 1.537-.595 2.272L69.54 46.682l-4.076 7.959-10.755 5.952" stroke="#C2724A" stroke-miterlimit="10"/><path d="M99.061 26.61s-.398.476-1.065 1.01c-.667.534-29.46 16.654-29.46 16.654l-5.525 11.724" stroke="#C2724A" stroke-miterlimit="10"/><path d="M71.304 45.635v1.515s-.358.807-2.569 1.102" stroke="#C2724A" stroke-miterlimit="10"/><path d="M70.907 47.55v1.004s-.45 1.425-3.025 1.366M72.473 44.942l1.497.693s.926.124 1.378-.347l10.07-6.014.214-2.134M74.1 43.977v1.658M77.96 41.69v2.04M82.518 38.987v1.917M89.435 34.889l-.108 1.652s-.799 1.204-3.693 1.48" stroke="#C2724A" stroke-miterlimit="10"/><path d="M88.838 36.999v1.021s-.744 1.136-3.39.967M35.12 42.9l-21.738-9.135a.475.475 0 0 1-.23-.688l4.3-7.08a.482.482 0 0 1 .577-.202l21.979 8.43c.275.1.396.418.257.674l-4.54 7.785a.482.482 0 0 1-.605.214v.002ZM16.911 37.862c.285-.25.362-.63.17-.849-.19-.219-.577-.193-.863.057-.285.25-.361.63-.17.849.191.219.578.193.863-.057Z" stroke="#C2724A" stroke-miterlimit="10"/><path d="m16.567 34.35.167-1.278 1.134.64-1.3.639ZM32.744 35.364l-.289.218.046-.294 1.242-1.863.288-.218-.045.295-1.242 1.862Zm-1.692 2.537-.292.223.049-.3 1.238-1.859.289-.218-.045.295-1.239 1.858Zm3.897-4.519-.292.202-.55-.173.024-.273.292-.202.55.173-.024.273Zm-3.39 5.084-.293.203-.55-.173.024-.273.293-.203.55.173-.024.273Zm4.287-4.803-.292.202-.55-.173.024-.273.292-.202.55.173-.024.273Zm-3.39 5.084-.293.203-.55-.173.024-.273.294-.203.55.173-.024.273h-.002Zm2.077-2.82-.288.217.045-.294 1.25-1.875.288-.218-.045.295-1.25 1.874Zm-1.691 2.535-.292.224.049-.3 1.238-1.859.288-.218-.045.295-1.238 1.856v.002ZM29.912 34.185l-.288.219.045-.295 1.242-1.863.288-.218-.045.295-1.242 1.862Zm-1.691 2.537-.293.224.05-.3 1.238-1.86.288-.217-.045.294-1.238 1.859Zm3.897-4.519-.293.203-.549-.173.024-.273.292-.203.55.173-.024.273Zm-3.39 5.085-.293.202-.55-.173.024-.273.292-.202.55.172-.024.274Zm4.287-4.804-.293.203-.55-.173.024-.273.293-.203.55.173-.024.273Zm-3.391 5.084-.293.203-.549-.173.024-.273.294-.202.55.172-.024.273h-.002Zm2.078-2.82-.289.218.046-.295 1.25-1.874.288-.218-.045.294-1.25 1.874Zm-1.692 2.536-.292.224.05-.3 1.237-1.86.289-.218-.046.295-1.238 1.857v.002ZM26.938 33.007l-.289.218.045-.295 1.242-1.862.289-.218-.045.294-1.242 1.863Zm-1.692 2.536-.292.224.049-.3 1.238-1.859.288-.218-.045.295-1.238 1.858Zm3.897-4.518-.292.202-.55-.173.024-.273.292-.202.55.172-.024.274Zm-3.39 5.084-.293.202-.55-.173.024-.273.293-.202.549.173-.024.273Zm4.287-4.804-.293.203-.549-.173.024-.273.292-.203.55.173-.024.273Zm-3.39 5.085-.293.202-.55-.173.024-.273.294-.202.55.173-.024.273h-.002Zm2.077-2.821-.288.218.045-.295 1.25-1.874.288-.218-.045.295-1.25 1.874Zm-1.691 2.536-.293.224.05-.3 1.238-1.86.288-.217-.045.294-1.238 1.857v.002ZM23.92 31.952l-.289.218.045-.295 1.242-1.862.289-.218-.045.294-1.242 1.863Zm-1.692 2.536-.292.224.049-.3 1.238-1.859.289-.218-.046.295-1.238 1.858Zm3.897-4.518-.292.202-.55-.173.024-.273.292-.202.55.173-.024.273Zm-3.39 5.084-.293.202-.55-.173.024-.273.293-.202.549.173-.024.273Zm4.287-4.803-.292.202-.55-.173.024-.273.292-.202.55.172-.024.274Zm-3.39 5.084-.293.202-.55-.173.024-.273.294-.202.55.173-.024.273h-.002Zm2.077-2.821-.288.218.045-.295 1.25-1.874.288-.218-.045.295-1.25 1.874Zm-1.691 2.536-.293.224.05-.3 1.238-1.86.288-.217-.045.294-1.238 1.857v.002ZM24.516 35.46h-.408v.41h.408v-.41Z" fill="#C2724A"/><path d="M35.75 48.592 6.709 35.638a.385.385 0 0 1-.173-.549l8.665-14.42a.383.383 0 0 1 .46-.163L45.22 31.25c.221.08.318.34.204.546l-9.182 16.634a.384.384 0 0 1-.492.165v-.002ZM38.393 48.975 47.67 32.38a.469.469 0 0 1 .572-.212l15.173 5.558a.47.47 0 0 1 .252.668l-9.621 17.671a.47.47 0 0 1-.605.204l-14.83-6.634a.47.47 0 0 1-.218-.66Z" stroke="#C2724A" stroke-miterlimit="10"/><path d="m46.071 36.392 1.474-2.654a.202.202 0 0 1 .25-.09l3.9 1.486a.202.202 0 0 1 .108.281l-1.385 2.725a.202.202 0 0 1-.254.096l-3.989-1.557a.203.203 0 0 1-.104-.287ZM51.036 38.296l1.556-2.655a.219.219 0 0 1 .263-.09l4.122 1.487c.118.044.173.173.114.281l-1.464 2.725a.218.218 0 0 1-.267.096l-4.214-1.558a.2.2 0 0 1-.11-.286ZM56.25 40.268l1.571-2.654a.222.222 0 0 1 .265-.09l4.164 1.487c.12.043.172.173.116.28l-1.478 2.726a.223.223 0 0 1-.27.096l-4.259-1.558c-.121-.045-.172-.179-.11-.287ZM43.926 40.388l1.474-2.654a.203.203 0 0 1 .25-.09l3.65 1.45a.202.202 0 0 1 .107.282L48.022 42.1a.202.202 0 0 1-.253.096l-3.738-1.523a.203.203 0 0 1-.105-.286ZM48.64 42.256l1.556-2.654a.219.219 0 0 1 .263-.09l4.122 1.487c.118.043.173.173.114.28l-1.464 2.725a.218.218 0 0 1-.266.097l-4.215-1.558a.2.2 0 0 1-.11-.287ZM53.855 44.228l1.572-2.654a.222.222 0 0 1 .265-.09l4.164 1.487c.12.043.173.173.116.281l-1.478 2.725a.223.223 0 0 1-.27.096l-4.259-1.558c-.121-.045-.172-.178-.11-.287ZM41.637 44.323l1.55-2.61a.2.2 0 0 1 .25-.082l3.857 1.601a.201.201 0 0 1 .1.283L45.93 46.2a.2.2 0 0 1-.255.088l-3.942-1.675a.202.202 0 0 1-.094-.29h-.002ZM46.505 46.482l1.38-2.766a.218.218 0 0 1 .264-.083l4.37 1.656c.118.047.167.18.106.283l-1.542 2.682a.219.219 0 0 1-.271.088l-4.207-1.571a.196.196 0 0 1-.1-.29ZM51.699 48.496l1.407-2.657a.22.22 0 0 1 .267-.082l4.362 1.658c.117.047.169.179.108.283l-1.558 2.682a.222.222 0 0 1-.273.088L51.8 48.784c-.12-.047-.169-.184-.102-.288ZM39.317 48.342l1.55-2.609a.2.2 0 0 1 .252-.082l3.855 1.6a.201.201 0 0 1 .1.284l-1.463 2.683a.2.2 0 0 1-.255.089l-3.943-1.676a.202.202 0 0 1-.094-.289h-.002ZM44.225 50.391l1.632-2.607a.218.218 0 0 1 .265-.082l4.078 1.607c.117.047.167.179.106.283l-1.543 2.681a.219.219 0 0 1-.27.089l-4.168-1.682a.196.196 0 0 1-.1-.289ZM49.393 52.6l1.503-2.741a.22.22 0 0 1 .267-.083l4.252 1.659c.118.047.17.178.108.282l-1.558 2.786a.221.221 0 0 1-.272.089l-4.198-1.704c-.12-.047-.168-.184-.102-.288ZM36.505 33.636l-.467.972M36.739 34.12l-.467.23.233.362M37.375 34.89s-.5-.056-.467-.335c0 0 .166-.395.467-.203 0 0 .467.05 0 .539Z" stroke="#C2724A" stroke-miterlimit="10"/><path d="M36.505 35.256s.434.715.87-.367" stroke="#C2724A" stroke-miterlimit="10"/></g></svg>
